X: 21191
T: What Beauteous Scenes
%R: air, strathspey
B: James Oswald "The Caledonian Pocket Companion" v.2 p.119 #1
Z: 2018 John Chambers <jc:trillian.mit.edu>
M: C
L: 1/8
K: G
%%slurgraces yes
%%graceslurs yes
"_Slow"d2 |\
g3 b (a<f) Ted | (g<e) (dc) (c2B)c | d2 (e/f/)g (ed)(cB) | (B4 A2)d2 |\
(B<G)(d<B) (g<d)(b<g) | (af)(ed) {ef}g3a |
Tf2(ed) (fe)(d^c) | {c2}d6 :: (dc) |\
(B/c/)d (d/e/)=f f3g | (ec)(d<B) (B2c)e | T^d2(ef) g2Tf>e | e4 Hz2 e2 |\
(dg)Tg2 (cg)Tg2 | (Bd)(gB) (B2A)e |
(ed)(cB) (dc)(BA) | (G3A/B/) (A3B/c/) |\
(3Bgf (3edc B2TA2 | G6 :: d2 | g2 (3bgb (3afg (3afd | e2 (3gec (c2B)e |
(3def (3gab c2 (3Bdg | TB2A2 z2d2 | (3BGB (3dBd (3gdg (3bgb |\
(3afg (3ab^c' d'2 (3^c'ba | (3bd'^c' (3bag f2Te2 |
d6 :: d2 | G2 (3GBd =f2 (3agf |\
(3egc (3d=fB (B2c)e | (3^dfa (3c'ba g2 Tf3/(e//f//) |\
e4 Hz2 e2 | .d/(g/f/g/) .a/(g/f/g/) .B/(g/f/g/) a/(g/f/g/) |
(bg)(dB) (B2A)e | (d<g) (f/e/d/c/) (B<e) (d/c/B/A/) |\
(G3/A//B//) (A3/B//c//) (B3/c//d//) (c3/d//e//) | (3dgf (3gec B2(TA3/G//A//) | G6 :|


